X:55
T: Graf und Nonne (Die Nonne)
N: Q21551
O: Osteuropa, Ungarn, Komitat Komarom, Oroszlany
N: Ungarische Fassung der Ballade.
R: Ballade, Standesunterschied, vergebliche Werbung, Liebe, Klage
M: 6/8
L: 1/8
K: G
 | _BAGBAG | d3z2
d | g2=f_B2c | d2z4 |
_eeed2A | c3_B2
G | _B2dA2B | G3z3

@@@ Tune index: 1765
